brandFactory_export/2.Regular/Autentificación_2Regular.svg

<?xml version="1.0" encoding="UTF-8"?>
<svg width="24px" height="24px" viewBox="0 0 24 24" version="1.1" xmlns="http://www.w3.org/2000/svg" xmlns:xlink="http://www.w3.org/1999/xlink">
    <title>2.Regular/Autentificación_2Regular</title>
    <g id="Symbols" stroke="none" stroke-width="1" fill="none" fill-rule="evenodd">
        <g id="2.Regular/Autentificación_2Regular" fill="#5CB615" fill-rule="nonzero">
            <path d="M7.62016807,15.8016807 C7.86554622,16.0403361 7.86890756,16.4336134 7.6302521,16.6789916 L7.62016807,16.6890756 L6.22521008,18.0672269 L7.62016807,19.4453782 C7.86554622,19.6840336 7.86890756,20.0773109 7.6302521,20.3226891 L7.62016807,20.3327731 C7.49915966,20.4504202 7.33781513,20.5176471 7.1697479,20.5142857 C7.00168067,20.5142857 6.84033613,20.4504202 6.71932773,20.3327731 L5.32436975,18.9546218 L3.93613445,20.3260504 C3.81848739,20.4436975 3.65378151,20.5109244 3.48571429,20.5109244 C3.31764706,20.5109244 3.15630252,20.4436975 3.03529412,20.3260504 C2.78991597,20.0840336 2.78655462,19.6907563 3.02857143,19.4487395 C3.03193277,19.4453782 3.03193277,19.4420168 3.03529412,19.4420168 L4.42352941,18.0705882 L3.03529412,16.6991597 C2.78991597,16.4571429 2.78655462,16.0638655 3.02857143,15.8218487 C3.03193277,15.8184874 3.03193277,15.8151261 3.03529412,15.8151261 C3.28403361,15.5697479 3.68403361,15.5697479 3.93277311,15.8151261 L5.3210084,17.1865546 L6.71596639,15.8084034 C6.97142857,15.5596639 7.37142857,15.5596639 7.62016807,15.8016807 L7.62016807,15.8016807 Z M15.4588235,11.3411765 C15.9966387,10.8336134 16.2655462,10.0134454 16.2655462,8.89747899 C16.2655462,7.78151261 15.9932773,6.95798319 15.4588235,6.44705882 C14.9378151,5.95294118 14.1210084,5.70084034 13.0319328,5.70084034 C11.9428571,5.70084034 11.1294118,5.95294118 10.6117647,6.44705882 C10.0773109,6.95798319 9.80840336,7.78151261 9.80840336,8.89747899 C9.80840336,10.010084 10.0773109,10.8336134 10.6117647,11.3411765 C11.1294118,11.8319328 11.9394958,12.0840336 13.0319328,12.0840336 C14.1243697,12.0840336 14.9378151,11.8319328 15.4588235,11.3411765 Z M13.0285714,4.25546218 C14.5109244,4.25546218 15.6705882,4.64201681 16.4739496,5.40840336 C17.307563,6.20504202 17.7310924,7.37815126 17.7310924,8.90084034 C17.7310924,10.4235294 17.307563,11.5966387 16.4739496,12.389916 C15.6739496,13.1462185 14.5142857,13.5327731 13.0319328,13.5327731 C11.5495798,13.5327731 10.3932773,13.1495798 9.59327731,12.3865546 C8.76302521,11.5966387 8.34285714,10.4235294 8.34285714,8.90084034 C8.34285714,7.37815126 8.76302521,6.20168067 9.59327731,5.40840336 C10.389916,4.64201681 11.5495798,4.25546218 13.0285714,4.25546218 L13.0285714,4.25546218 Z M21.6235294,14.7596639 C22.0705882,12.194958 22.1411765,6.63865546 22.1613445,4.57142857 C20.0705882,4.65882353 18.7831933,3.83865546 17.5529412,3.02857143 C16.3092437,2.21848739 15.1361345,1.45546218 13.0386555,1.44537815 L13.0285714,1.44537815 C10.9411765,1.44537815 9.76470588,2.21848739 8.52773109,3.02857143 C7.27731092,3.8487395 5.97983193,4.6789916 3.91932773,4.58151261 C3.92941176,6.23193277 3.97983193,10.0907563 4.23193277,12.887395 C4.58151261,12.8403361 4.93445378,12.8168067 5.28739496,12.8201681 C7.38823529,12.8201681 8.93781513,13.4756303 9.79831933,14.8470588 C9.91596639,14.8369748 10.0436975,14.8369748 10.1680672,14.8369748 L15.8890756,14.8369748 C17.8319328,14.8369748 19.4453782,15.4352941 20.5478992,16.5747899 C20.5781513,16.605042 20.6084034,16.6352941 20.6453782,16.6823529 C21.1529412,16.0302521 21.512605,15.3848739 21.6235294,14.7596639 L21.6235294,14.7596639 Z M13.0386555,22.1008403 C14.6789916,21.3008403 17.6571429,19.610084 19.6403361,17.7411765 C19.5798319,17.6739496 19.5327731,17.6168067 19.492437,17.5764706 C18.6722689,16.7294118 17.4218487,16.2857143 15.8890756,16.2857143 L10.3831933,16.2857143 C10.5109244,16.8067227 10.5781513,17.394958 10.5781513,18.0504202 C10.5781513,19.005042 10.4436975,19.8252101 10.1613445,20.5109244 C11.0957983,21.0756303 12.0571429,21.6067227 13.0386555,22.1008403 Z M5.28403361,21.8285714 C7.9697479,21.8285714 9.11260504,20.6991597 9.11260504,18.0470588 C9.11260504,15.4016807 7.9697479,14.2655462 5.28403361,14.2655462 C2.60840336,14.2655462 1.46554622,15.405042 1.46554622,18.0470588 C1.46554622,20.702521 2.60840336,21.8285714 5.28403361,21.8285714 Z M23.6236152,3.77142857 C23.6236152,4.10084034 23.6436975,11.7109244 23.0655462,14.9983193 C22.3058824,19.3378151 13.7109244,23.3815126 13.3478992,23.5529412 C13.2504202,23.6 13.1428571,23.6235294 13.0352941,23.6201681 C12.9277311,23.6235294 12.8201681,23.6 12.7226891,23.5529412 C12.6554622,23.5260504 11.2,22.8403361 9.42184874,21.7512605 C8.52436975,22.7831933 7.10588235,23.2739496 5.28067227,23.2739496 C1.94285714,23.2773109 0,21.6168067 0,18.0470588 C0,15.4991597 0.998319328,13.9260504 2.78319328,13.2336134 C2.4302521,9.54957983 2.45042017,4.01008403 2.45042017,3.77142857 C2.45042017,3.54957983 2.54789916,3.34789916 2.72268908,3.21008403 C2.89747899,3.06890756 3.12941176,3.01512605 3.34789916,3.06554622 C5.33109244,3.37478992 6.38319328,2.68907563 7.71428571,1.82184874 C9.01512605,0.974789916 10.497479,0 13.0285714,0 L13.0386555,0 C15.5798319,0.0100840336 17.0521008,0.974789916 18.3596639,1.82184874 C19.6773109,2.68907563 20.7327731,3.37478992 22.7361345,3.06554622 C22.9512605,3.03865546 23.1865546,3.09579832 23.3411765,3.2302521 C23.5058824,3.36470588 23.6236152,3.55966387 23.6236152,3.77142857 Z" id="Autentificación_2Regular"></path>
        </g>
    </g>
</svg>

<svg width="24" height="24" viewBox="0 0 24 24" xmlns="http://www.w3.org/2000/svg"><path d="M7.62 15.802a.62.62 0 01.01.877l-.01.01-1.395 1.378 1.395 1.378a.62.62 0 01.01.878l-.01.01a.63.63 0 01-.45.181.644.644 0 01-.45-.181l-1.396-1.378-1.388 1.371a.641.641 0 01-.9 0 .618.618 0 01-.007-.877c.003-.004.003-.007.006-.007l1.389-1.371-1.389-1.372a.618.618 0 01-.006-.877c.003-.004.003-.007.006-.007a.64.64 0 01.898 0l1.388 1.372 1.395-1.379a.647.647 0 01.904-.006zm7.839-4.46c.538-.508.807-1.329.807-2.445 0-1.115-.273-1.939-.807-2.45-.521-.494-1.338-.746-2.427-.746-1.09 0-1.903.252-2.42.746-.535.511-.804 1.335-.804 2.45 0 1.113.27 1.937.804 2.444.517.49 1.327.743 2.42.743 1.092 0 1.906-.252 2.427-.743zm-2.43-7.087c1.482 0 2.642.387 3.445 1.153.834.797 1.257 1.97 1.257 3.493s-.423 2.696-1.257 3.489c-.8.756-1.96 1.143-3.442 1.143-1.482 0-2.639-.383-3.439-1.146-.83-.79-1.25-1.963-1.25-3.486 0-1.523.42-2.7 1.25-3.493.797-.766 1.957-1.153 3.436-1.153zm8.595 10.505c.447-2.565.517-8.121.537-10.189-2.09.088-3.378-.732-4.608-1.542-1.244-.81-2.417-1.574-4.514-1.584h-.01c-2.088 0-3.264.773-4.501 1.584-1.25.82-2.548 1.65-4.609 1.553.01 1.65.06 5.509.313 8.305.35-.047.702-.07 1.055-.067 2.101 0 3.65.656 4.511 2.027.118-.01.246-.01.37-.01h5.721c1.943 0 3.556.598 4.659 1.738.03.03.06.06.097.107.508-.652.868-1.297.979-1.922zm-8.585 7.34c1.64-.8 4.618-2.49 6.601-4.359-.06-.067-.107-.124-.148-.165-.82-.847-2.07-1.29-3.603-1.29h-5.506c.128.52.195 1.109.195 1.764 0 .955-.134 1.775-.417 2.46a42.624 42.624 0 002.878 1.59zm-7.755-.271c2.686 0 3.829-1.13 3.829-3.782 0-2.645-1.143-3.781-3.829-3.781-2.676 0-3.818 1.139-3.818 3.781 0 2.656 1.142 3.782 3.818 3.782zM23.624 3.77c0 .33.02 7.94-.558 11.227-.76 4.34-9.355 8.384-9.718 8.555a.673.673 0 01-.313.067.673.673 0 01-.312-.067c-.068-.027-1.523-.713-3.301-1.802-.898 1.032-2.316 1.523-4.141 1.523C1.943 23.277 0 21.617 0 18.047c0-2.548.998-4.12 2.783-4.813C2.43 9.55 2.45 4.01 2.45 3.77c0-.221.098-.423.273-.56a.735.735 0 01.625-.145c1.983.309 3.035-.377 4.366-1.244C9.015.975 10.497 0 13.03 0h.01c2.54.01 4.013.975 5.32 1.822 1.318.867 2.374 1.553 4.377 1.244.215-.027.45.03.605.164.165.135.283.33.283.541z" fill="#5CB615" fill-rule="nonzero"/></svg>
